X:1
T:Radford, 98.98
T:Radford, 98.98
T:Samuel Sebastian Wesley, 1874
T:Public Domain Courtesy of the Cyber Hymnal™
C:Samuel Sebastian Wesley, 1874
Z:Public Domain
Z:Courtesy of the Cyber Hymnal™
%%score ( 1 2 ) ( 3 4 )
L:1/8
Q:1/4=130
M:6/4
K:G
V:1 treble 
V:2 treble 
V:3 bass 
V:4 bass 
V:1
 D2 | [DG]4 [FA]2 [GB]4 G2 | [Ac]4 [GB]2 [GB]2 [FA]2 [FA]2 | [GB]4 [Ac]2 [Bd]4 [GB]2 | %4
 [GB]4 [FA]2 G4 [EG]2 | [DF]4 [^CE]2 D4 [G^c]2 | [GB]4 [FA]2 [Gd]2 [Fc]2 [GB]2 | %7
 [Ge]4 [=Fd]2 (c2 B2) [EA]2 | (G2 A2) [DF]2 [DG]4 |] %9
V:2
 D2 | x10 G2 | x12 | x12 | x6 G4 x2 | x6 D4 x2 | x12 | x6 E4 x2 | D4 x6 |] %9
V:3
 [G,B,]2 | [G,B,]4 [G,C]2 [G,D]4 [G,B,]2 | [C,E]4 [C,E]2 [D,D]2 [D,D]2 [C,D]2 | %3
 [B,,D]4 [A,,D]2 [G,,D]4 [B,,D]2 | [D,D]4 [D,C]2 [G,B,]4 [G,,B,]2 | %5
 [A,,A,]4 [A,,G,]2 [D,F,]4 [E,G,]2 | [D,D]4 [C,D]2 [B,,D]2 [D,D]2 [G,D]2 | %7
 [C,C]4 [C,B,]2 (C2 D2) [C,C]2 | (B,2 C2) [D,A,]2 [G,,B,]4 |] %9
V:4
 x2 | x12 | x12 | x12 | x12 | x12 | x12 | x6 C,4 x2 | D,4 x6 |] %9

